X: 11
T: No_1_He_Gave_Me_a_Bracelet.krn
N: Derived from No_1_He_Gave_Me_a_Bracelet.krn
%%abc-version 2.0
%%abcx-abcm2ps-target-version 5.9.1 (29 Sep 2008)
%%abc-creator hum2abc beta
%%abcx-conversion-date 2019/03/15 08:27:55
%%humdrum-veritas 1191850678
%%humdrum-veritas-data 725664622
%%linebreak <none>
%%barnumbers 0
L: 1/8
M: 2/4
K: Ab clef=treble
[K:clef=treble][M:2/4]B/B3/ B3/B/ [I:setbarnb 2]| 
[M:3/8]Bc/B/A | 
[M:2/4]F2F2 | 
[M:3/8]FA/F/E | 
[M:2/4]D3/E/ (3FED | 
B,2=A,A, | 
B,2F, z | 
[M:3/4]D3/D/ B,3/E/ (3FED | 
B,D D/B,3/ F,3/G,/ | 
F,2F,2z2 :|]  



